X:115
T: Scotch Sally
S: "The Roche Collection of Traditional Irish Music" [I/68/175]
L: 1/8
M: 4/4
R: reel
K: Ddor
AD (3DDD Addc | AcGE EDEG | AD (3DDD Addc | AcGE Ed D2 :|
egga ge (3ddd | eaab ageg | g2 ga g2 ed | eage d2 d2 |
egga ge (3ddd | eaab ageg | (3gag (3ege (3ded c>A | GEc>e ED D2 |]
